fs/tent_20_filled.svg

<svg viewBox="0 0 20 20" fill="none" xmlns="http://www.w3.org/2000/svg" height="1em" width="1em">
  <path d="M10.4009 2.8176C10.3059 2.70361 10.1652 2.6377 10.0168 2.6377C9.86843 2.6377 9.7277 2.70361 9.63271 2.8176C8.43621 4.2534 6.07483 5.95772 4.71701 6.71614C4.58004 6.79264 4.48692 6.929 4.46551 7.08442L3.37493 15H2.5C2.22386 15 2 15.2239 2 15.5C2 15.7761 2.22386 16 2.5 16H6.43633C6.46873 16.0066 6.50205 16.01 6.53589 16.01H13.4424C13.4762 16.01 13.5095 16.0066 13.5419 16H17.5005C17.7766 16 18.0005 15.7761 18.0005 15.5C18.0005 15.2239 17.7766 15 17.5005 15H16.6587L15.5681 7.08442C15.5467 6.929 15.4536 6.79264 15.3166 6.71614C13.9588 5.95772 11.5974 4.2534 10.4009 2.8176ZM7.51473 15.01C8.35388 13.7908 9.21941 12.2239 10.0001 9.74898C10.7059 11.9818 11.4932 13.5253 12.4855 15.01H7.51473Z" fill="#212121"/>
</svg>

<svg viewBox="0 0 20 20" fill="none" xmlns="http://www.w3.org/2000/svg" height="1em" width="1em">
  <path d="M10.4 2.818a.5.5 0 0 0-.767 0c-1.197 1.435-3.558 3.14-4.916 3.898a.5.5 0 0 0-.251.368L3.375 15H2.5a.5.5 0 0 0 0 1h3.936c.033.007.066.01.1.01h6.906a.498.498 0 0 0 .1-.01H17.5a.5.5 0 0 0 0-1h-.841l-1.09-7.916a.5.5 0 0 0-.252-.368c-1.358-.758-3.72-2.463-4.916-3.898ZM7.516 15.01c.839-1.22 1.704-2.786 2.485-5.261.706 2.233 1.493 3.776 2.486 5.261H7.514Z" fill="#212121"/>
</svg>
